X:1
T:Title
%%score { ( 1 4 ) | ( 2 3 ) }
L:1/8
Q:1/4=100
M:4/4
K:Bb
V:1 treble nm="Grand Piano"
V:4 treble 
V:2 bass 
V:3 bass 
V:1
 [DF]>[DF] (3[D-G][DF][D=E] [DF]2 [Fd]2 | d>c c>=B c4 | E>E (3FED E2 c2 | %3
w: William~H.~Price * * * * * *|||
 [Ec]>[DB] [DB]>[EG] [DF]4 | [DF]>[DF] (3[D-G][DF][D=E] [DF]2 [Fd]2 | [Fd]>[Fc] [Fc]>[F=B] [Fc]4 | %6
w: |||
 c>c (3cAF c2 c2 | [=Ec]>[EB] [EA]>[EG] F4 | e2 _A>=A d2 c2 | B4 z4 | z4 B2 B2 | [^Fd]6 D,2 | %12
w: ||||||
 d2 _d>=d e2 d2 | z4 G4 | [B,=EG]2 [A,EA]2 [EB]2 [E=B]2 | z f/f/ ff ffff | e2 _A>=A d2 c2 | B4 z4 | %18
w: ||||||
 z4 z2 B2 | [^Fd]6[K:bass] z2 | d2 _d>=d e2 d2 | [=Ed]2 [Ec]2 [EB]2 [EG]2 | F2 d2 E2 c2 | %23
w: |||||
 [DB]6 z2 |] %24
w: |
V:2
 [B,,B,]>[B,,B,] (3:2:2[B,,B,]2 [B,,B,] [B,,B,]2 [B,,B,]2 | %1
 [F,A,F]>[F,A,E] [F,A,E]>[F,_A,D] [F,=A,E]4 | %2
 [F,A,C]>[F,A,C] (3:2:2[F,A,C]2 [F,A,C] [F,A,C]2 [F,A,E]2 | %3
 [B,,B,]>[B,,B,] [B,,B,]>[B,,B,] [B,,B,]4 | %4
 [B,,B,]>[B,,B,] (3:2:2[B,,B,]2 [B,,B,] [B,,B,]2 [B,,B,]2 | [C,A,]>[C,A,] [C,A,]>[C,_A,] [C,=A,]4 | %6
 C>C (3CA,F, C2 C2 | [C,B,]>[C,G,] [C,C]>[C,B,] [F,A,]4 | z2 =B,2 z4 | %9
 [B,,B,]2 [F,B,]2 [D,B,D]2 [B,,B,]2 | [E,B,E]2 [E,B,E]2 [E,G,]2 [E,G,]2 | z2 A,4 z2 | %12
 [G,=B,F]2 [G,B,F]2 [G,B,F]2 [G,B,F]2 | [C,B,]2 [C,B,]2 C,2 C,2 | C,2 C,2 [C,G,]2 [C,G,]2 | %15
 [F,A,E]6 z2 | z2 =B,2 z4 | [B,,B,]2 [F,B,]2 [D,B,D]2 [B,,B,]2 | %18
 [E,B,E]2 [E,B,E]2 z z/ A/ [E,G,]2 | [D,A,]2 A,4 z2 | [G,=B,F]2 [G,B,F]2 [G,B,F]2 [G,B,F]2 | %21
 [C,B,]2 [C,B,]2 [C,G,]2 [C,B,]2 | [F,B,C]2 [F,B,F]2 [F,A,C]2 [F,A,E]2 | [B,,B,]6 z2 |] %24
V:3
 x8 | x8 | x8 | x8 | x8 | x8 | x8 | x8 | [F,A,F]2 [F,F]->[F,CF] [F,A,F]2 [F,A,E]2 | x8 | x8 | %11
 [D,A,]2 z2 ^F,2 z2 | x8 | x8 | x8 | x8 | [F,A,F]2 [F,F]->[F,CF] [F,A,F]2 [F,A,E]2 | x8 | %18
 z4 E,2 z2 | x8 | x8 | x8 | x8 | x8 |] %24
V:4
 x8 | x8 | x8 | x8 | x8 | x8 | x8 | x8 | x8 | D2 D2 F2 D2 | G>^F G>A G->[GA] G->[Gc] | x8 | x8 | %13
 [=Ed]2 [Ec]2 [B,E]2 [B,E]2 | x8 | c6 z2 | x8 | D2 D2 F2 D2 | G>^F G>A [B,GB]2 G->[Gc] | %19
 z4[K:bass] ^F,2 D,2 | x8 | x8 | x8 | x8 |] %24

